X:1
T:Dichterliebe, Op.48
T:Am leuchtenden Sommermorgen
T:12. Am leuchtenden Sommermorgen
T:Robert Schumann
T:Heinrich Heine
T:Dichterliebe Op.48
T:OpenScore (CC0)
T:OpenScore (CC0)
C:Robert Schumann
Z:Heinrich Heine
Z:OpenScore (CC0)
%%score 1 { ( 2 3 ) | ( 4 5 ) }
L:1/8
Q:1/4=52
M:6/8
K:Bb
V:1 treble nm="Voice"
V:2 treble nm="Piano"
V:3 treble 
V:4 bass 
V:5 bass 
V:1
"^Ziemlich langsam." z6 | z2 z z2!p! F | B3/2 B/ B d2 B | A G z z2 z | G G G A3/2 G/ A | %5
w: |Am|leuch- ten- den Som- mer-|mor- gen|geh' ich im Gar- ten~ her-|
 B2 z z2 z | z2 z z2 F | B3/2 B/ B B3/2 _c/ _d | _d3 _c3 | B B3/2 B/ =c2- c/ B/ | B3 z2 z | %11
w: um.|Es|flü- stern~ und spre- chen die|Blu- men,|ich a- ber wand- * le|stumm.|
 z2 z z2 F | B3/2 B/ B d3/2 d/ B | A G z z2 G | G2 G A3/2 G/ A | B3 z2 z | %16
w: Es|flü- stern~ und spre- chen~ die|Blu- men, und|schau'n mit- lei- dig~ mich|an:|
[Q:1/4=45]"^langsamer"!pp! =B B B d3/2 d/ B | A3 c2 c |"^ritard."[Q:3/8=35] B3/2 B/ B _d2- d/ c/ | %19
w: "~Sei uns- rer Schwe- ster~ nicht|bö- se, du|trau- ri- ger, blas- * ser|
[Q:3/8=45] c3 z2 z | z6 | z6 | z6 | z6 | z6 | z6 | z6 | z6 | z6 | !fermata!z3 |] %30
w: Mann!~"|||||||||||
V:2
 z/ B2 x/!mf! z/!>(! b2!>)!!p! x/ | z/ f2 x/ z/ A2 x/ | z/ B2 x/ z/ B2 x/ | z/ B2 x/ z/ =B2 x/ | %4
 z/ c2 x/ z/ A2 x/ | z/ B2 x/ z/ b2 x/ | z/ f2 x/ z/ A2 x/ | z/ B2 x/ z/ ^A2 x/ | %8
 z/ ^f2 x/ z/ ^f'2 x/ | z/ =e2 x/ z/ _e2 x/ | z !>!B2 z/ !>!b2 x/ | z/ f2 x/ z/ A2 x/ | %12
 z/ B2 x/ z/ B2 x/ | z/ B2 x/ z/ =B2 x/ | z/ c2 x/ z/ A2 x/ | z/ B2 x/ z/ B2 x/ | %16
 z/ =B2 x/ z/ d2 x/ | z/ A2 x/ z/ c2 x/ | z/"^ritard." !>!_B2 x/ z/ !>!b2 x/ | z/ f2 x/ z/ g'2 x/ | %20
 z/ e2 x/ z/ f'2 x/ | z/ d2 x/ z/ e'2 x/ | z/!p! (c/- c2- c/d-<de/- | e/f/- f2- f/B-<B[_A=B-]/ | %24
 B/c/- c2- c/d-<d_e/- | e/f/- f2- f/B/- B2- | B/d/- d2- d/c/- c2- | c/B/- B2- B/F/- F2 | %28
 x/ F/ D2 (B,2 F,- | !fermata![F,B,]3)) |] %30
V:3
 x/ (B/=E/^C/!<(![I:staff +1] B,/_G,/)!<)![I:staff -1] x/ (b/=e/^c/ B/_G/) | %1
 x/ (f/d/B/ F/D/) x/ (A/F/_E/[I:staff +1] C/F,/) | %2
[I:staff -1] x/ (B/F/D/[I:staff +1] B,/F,/)[I:staff -1] x/ (B/F/D/[I:staff +1] B,/F,/) | %3
[I:staff -1] x/ (B/G/E/[I:staff +1] B,/G,/)[I:staff -1] x/ (=B/G/F/[I:staff +1] =B,/G,/) | %4
[I:staff -1] x/ (c/G/E/[I:staff +1] C/G,/)[I:staff -1] x/ (A/F/E/[I:staff +1] C/F,/) | %5
[I:staff -1] x/ (B/F/D/!<(![I:staff +1] B,/F,/)!<)![I:staff -1] x/ (b/=e/^c/ B/_G/) | %6
 x/ (f/d/B/F/ D/) x/ (A/F/_E/C/)[I:staff +1] F,/ | %7
[I:staff -1] x/ (B/F/D/[I:staff +1] B,/F,/)[I:staff -1] x/ (^A/=E/^C/[I:staff +1] ^A,/^F,/) | %8
[I:staff -1] x/ (^f/^c/=A/ ^F/^C/) x/ (^f'/=b/a/ ^d/=B/) | x/ (=e/_B/G/ =E/C/) x/ (_e/c/A/ F/C/) | %10
 z/ (d/B/F/[I:staff +1] D/B,/)[I:staff -1] x/ (b/=e/^c/ B/_G/) | %11
 x/ (f/d/B/F/ D/) x/ (A/F/_E/C/)[I:staff +1] F,/ | %12
[I:staff -1] x/ B/F/D/[I:staff +1] B,/F,/[I:staff -1] x/ B/F/D/[I:staff +1] B,/F,/ | %13
[I:staff -1] x/ B/G/E/[I:staff +1] B,/G,/[I:staff -1] x/ =B/G/F/[I:staff +1] =B,/G,/ | %14
[I:staff -1] x/ c/G/E/[I:staff +1] C/G,/[I:staff -1] x/ A/F/E/[I:staff +1] C/F,/ | %15
[I:staff -1] x/ B/F/D/[I:staff +1] B,/F,/[I:staff -1] x/ B/^F/D/[I:staff +1] B,/^F,/ | %16
[I:staff -1] x/ =B/G/D/[I:staff +1] =B,/G,/-[I:staff -1] x/ d/B/G/[I:staff +1] D/B,/ | %17
[I:staff -1] x/ A/^F/D/[I:staff +1] C/A,/[I:staff -1] x/ c/A/F/[I:staff +1] D/C/ | %18
[I:staff -1] x/ B/G/D/[I:staff +1] B,/G,/[I:staff -1] x/ b/=e/_d/ B/=E/ | %19
 x/ f/c/A/ F/C/ x/ g'/d'/=b/ g/d/ | x/ e/c/G/ E/C/ x/ f'/^c'/a/ f/^c/ | %21
 x/ d/A/F/ D/A,/ x/ e'/b/g/ e/B/ | %22
 x/ c/A/F/[I:staff +1] C/A,/[I:staff -1] z/ d/A/F/[I:staff +1] C/A,/ | %23
[I:staff -1] z/ f/B/F/[I:staff +1] D/B,/[I:staff -1] z/ B/=E/^CD/ | %24
 z/ c/_B/G/[I:staff +1] C/G,/[I:staff -1] z/ d/=A/F/[I:staff +1] C/=A,/ | %25
[I:staff -1] z/ f/B/F/[I:staff +1] D/B,/[I:staff -1] z/ B/=E/_DC/ | %26
 z/ d/B/F/[I:staff +1] D/B,/[I:staff -1] z/ A/F/E/[I:staff +1] C/A,/ | %27
[I:staff -1] z/ B/F/D/[I:staff +1] B,/F,/-[I:staff -1] z/ F/E/C/[I:staff +1] A,/F,/ | %28
[I:staff -1] z/ F/D/B,/[I:staff +1]F,/[I:staff -1]D/ B,/F,/[I:staff +1]D,/[I:staff -1]B,/F,/[I:staff +1]D,/- | %29
 x3 |] %30
V:4
!p!!ped! _G,,6!ped-up! | (F,,3 F,3) | B,,6 | E,3 D,3 | C,3 F,3 | %5
 B,, z z!mf!!ped!!>(! _G,,3!ped-up!!>)! |!p! (F,,3 F,3) | B,,2 z ^F,,3 |!<(! (=B,,3!<)!!mf! =B,3) | %9
!p! =C3 =F,3 | B,3!mf! _G,3 |!p! (F,,3 F,3) | B,,6 | E,3 D,3 | C,3 F,3 | B,,3 _A,,3 | %16
!pp! G,,3 G,3 | G,,3 G,3 | G,,3 _G,3 | F,,3 (F,3 |[I:staff -1] F2)[I:staff +1] z (F,3 | %21
[I:staff -1] F2)[I:staff +1] z (F,3 |[I:staff -1] F2)[I:staff +1] z E,3 | %23
 D,3 _G,2-!<(! G,/!<)!!mp!!>(![F,_A,]/!>)! |!pp! =E,3 _E,3 | D,3 _G,2- G,/=G,/ | F,,3 F,3 | %27
 F,,3 F,3 | B,,6 | !fermata![B,,D,]3 |] %30
V:5
 x6 | x6 | x6 | x6 | x6 | x6 | x6 | x6 | x6 | x6 | x6 | x6 | x6 | x6 | x6 | x6 | x6 | x6 | x6 | %19
 x6 | x6 | x6 | x6 | x3 x2 B,/=B,/ | x6 | x3 x2 B,/G,/ | x6 | x6 | x6 | x3 |] %30

